Komodo/apps/scalable/gcolor2.svg

<?xml version="1.0" encoding="UTF-8" standalone="no"?>
<!-- Created with Inkscape (http://www.inkscape.org/) -->
<svg id="svg11037" xmlns:rdf="http://www.w3.org/1999/02/22-rdf-syntax-ns#" xmlns="http://www.w3.org/2000/svg" height="96" width="96" version="1.1" xmlns:cc="http://creativecommons.org/ns#" xmlns:xlink="http://www.w3.org/1999/xlink" xmlns:dc="http://purl.org/dc/elements/1.1/">
 <defs id="defs11039">
  <linearGradient id="linearGradient11642" y2="1046.1" gradientUnits="userSpaceOnUse" y1="962.62" gradientTransform="matrix(1.15 0 0 1.15 -7.1999 -150.65)" x2="48" x1="48">
   <stop id="stop3189-6" style="stop-color:#3c393e" offset="0"/>
   <stop id="stop3191-0" style="stop-color:#79727e" offset="1"/>
  </linearGradient>
  <linearGradient id="linearGradient3113" x1="64.372" gradientUnits="userSpaceOnUse" y1="15.626" gradientTransform="matrix(.96152 .27472 -.96152 .27472 0 0)" x2="96.83" y2="48.084">
   <stop id="stop3665-3" style="stop-color:#6ecbf8" offset="0"/>
   <stop id="stop3667" style="stop-color:#0077b9" offset="1"/>
  </linearGradient>
  <linearGradient id="linearGradient3110" y2="74.737" gradientUnits="userSpaceOnUse" y1="58.322" x2="61.96" x1="36.281">
   <stop id="stop3693" offset="0"/>
   <stop id="stop3695" style="stop-opacity:0" offset="1"/>
  </linearGradient>
  <linearGradient id="linearGradient3107" y2="66.137" gradientUnits="userSpaceOnUse" y1="37.727" x2="59.031" x1="59.031">
   <stop id="stop3683-8" style="stop-color:#28c809" offset="0"/>
   <stop id="stop3685-9" style="stop-color:#88f342;stop-opacity:.75806" offset="1"/>
  </linearGradient>
  <linearGradient id="linearGradient3104-64" y2="69.789" gradientUnits="userSpaceOnUse" y1="37.445" x2="40.068" x1="40.068">
   <stop id="stop3675" style="stop-color:#f70000" offset="0"/>
   <stop id="stop3677" style="stop-color:#ff6e2a;stop-opacity:.83871" offset="1"/>
  </linearGradient>
  <linearGradient id="linearGradient3099" x1="34.784" gradientUnits="userSpaceOnUse" y1="34.444" gradientTransform="translate(0 -.37881)" x2="41.723" y2="52.121">
   <stop id="stop3746-3" offset="0"/>
   <stop id="stop3748-33" style="stop-opacity:0" offset="1"/>
  </linearGradient>
  <linearGradient id="linearGradient3101" x1="39.072" gradientUnits="userSpaceOnUse" y1="32.676" gradientTransform="translate(0 -.37881)" x2="41.723" y2="52.121">
   <stop id="stop3740-8" style="stop-opacity:0" offset="0"/>
   <stop id="stop3742-6" style="stop-opacity:0" offset="1"/>
  </linearGradient>
  <linearGradient id="linearGradient3092-0" x1="113.77" xlink:href="#linearGradient3701" gradientUnits="userSpaceOnUse" y1="38.074" gradientTransform="translate(-80)" x2="113.77" y2="54.954"/>
  <linearGradient id="linearGradient3701">
   <stop id="stop3703" style="stop-color:#fff" offset="0"/>
   <stop id="stop3705" style="stop-color:#fff;stop-opacity:0" offset="1"/>
  </linearGradient>
  <linearGradient id="linearGradient3089-4" x1="137.63" xlink:href="#linearGradient3701" gradientUnits="userSpaceOnUse" y1="30.34" gradientTransform="translate(-80)" x2="133.59" y2="47.639"/>
  <linearGradient id="linearGradient3086" x1="47.342" xlink:href="#linearGradient3701" gradientUnits="userSpaceOnUse" x2="47.342" y1="39.073" y2="80.767"/>
  <linearGradient id="linearGradient3083-8" x1="49.125" xlink:href="#linearGradient3701" gradientUnits="userSpaceOnUse" x2="76.014" y1="41.125" y2="30.688"/>
  <clipPath id="clipPath3009" clipPathUnits="userSpaceOnUse">
   <path id="path3011" style="opacity:.15;fill:#fff" d="m-2 956.36h-96v33.562l96 25.687v-59.25z"/>
  </clipPath>
 </defs>
 <metadata id="metadata11042">
  <rdf:RDF>
   <cc:Work rdf:about="">
    <dc:format>image/svg+xml</dc:format>
    <dc:type rdf:resource="http://purl.org/dc/dcmitype/StillImage"/>
    <dc:title/>
   </cc:Work>
  </rdf:RDF>
 </metadata>
 <g id="layer1" transform="translate(0 -956.36)">
  <rect id="rect3867" style="fill:url(#linearGradient11642)" rx="25" ry="25" height="92" width="92" y="958.36" x="2"/>
  <g id="g3122" transform="matrix(1.204 0 0 1.204 -9.9065 942.71)">
   <path id="path3717" d="m47.25 28.531-20.75 5.437v0.5625l0.5-0.0625 20-5.25 21.75 3.375 0.875 0.125v-0.562l-22.375-3.625z" style="opacity:.8;fill:#045"/>
   <path id="rect3659" d="m46.999 29.221 21.747 3.379-19.368 7.484-22.378-5.611 20-5.252z" style="opacity:.8;fill:url(#linearGradient3113)"/>
   <path id="rect3661" d="m47.126 52.842 20.012 6.222-17.791 11.747-20.516-9.095 18.295-8.874z" style="fill:url(#linearGradient3110)"/>
   <path id="path3679" d="m49.371 40.063v32.577l19.319-13.006v-27.022l-19.319 7.4499z" style="opacity:.8;fill:url(#linearGradient3107)"/>
   <path id="path3681" d="m49.371 40.063v32.577l-22.186-9.9306-0.10012-28.234 22.286 5.5874z" style="opacity:.8;fill:url(#linearGradient3104-64)"/>
   <path id="path3727" d="m29.728 35.138 17.425-4.7982-0.25254 20.961-17.173 9.0914v-25.254z" style="opacity:.2;stroke:url(#linearGradient3101);fill:url(#linearGradient3099)"/>
   <path id="path3699" d="m28.402 36.717 18.751 4.987-14.458 21.719-4.3563-1.9572 0.0631-24.749h0.00004z" style="opacity:.6;fill:url(#linearGradient3092-0)"/>
   <path id="path3709" d="m48.289 30.34v21.592l18.688 5.6821v-24.496l-18.688-2.778z" style="opacity:.4;fill:url(#linearGradient3089-4)"/>
   <path id="path2889" d="m29.125 33.906-2.125 0.563 0.094 0.031v0.96875l21.219 5.6875v31l1.063 0.469 0.937-0.625v-32.406l-0.71875-0.1875-20.469-5.5z" style="opacity:.7;block-progression:tb;text-indent:0;color:#000000;text-transform:none;fill:url(#linearGradient3086)"/>
   <path id="path2891" d="m66.719 32.281-17.594 6.969 0.75 1.875 18.812-7.5v-1l0.0625-0.03125-2.0312-0.3125z" style="opacity:.7;block-progression:tb;text-indent:0;color:#000000;text-transform:none;fill:url(#linearGradient3083-8)"/>
   <path id="path3704" d="m26.5 34.469 0.09375 29 22.781 10.188v-1.0312l-22.187-9.907-0.094-28.268-0.594 0.018z" style="fill:#800000"/>
   <path id="path3710" d="m69.688 32.72-1-0.14586v27.051l-19.312 13v1.1562l20.312-13.375v-27.687z" style="opacity:.8;fill:#250"/>
  </g>
  <rect id="rect3003" style="opacity:.15;fill:#fff" transform="translate(98 3.8281e-7)" clip-path="url(#clipPath3009)" rx="25" ry="25" height="92" width="92" y="958.36" x="-96"/>
 </g>
</svg>

<?xml version="1.0" encoding="UTF-8" standalone="no"?>
<!-- Created with Inkscape (http://www.inkscape.org/) -->

<svg
   xmlns:dc="http://purl.org/dc/elements/1.1/"
   xmlns:cc="http://creativecommons.org/ns#"
   xmlns:rdf="http://www.w3.org/1999/02/22-rdf-syntax-ns#"
   xmlns:svg="http://www.w3.org/2000/svg"
   xmlns="http://www.w3.org/2000/svg"
   xmlns:xlink="http://www.w3.org/1999/xlink"
   xmlns:sodipodi="http://sodipodi.sourceforge.net/DTD/sodipodi-0.dtd"
   xmlns:inkscape="http://www.inkscape.org/namespaces/inkscape"
   width="96"
   height="96"
   id="svg11037"
   version="1.1"
   inkscape:version="0.48.3.1 r9886"
   sodipodi:docname="gcolor2.svg">
  <defs
     id="defs11039">
    <linearGradient
       y2="1046.1001"
       x2="47.999954"
       y1="962.62189"
       x1="47.999954"
       gradientTransform="matrix(1.15,0,0,1.15,-7.1999462,-150.65291)"
       gradientUnits="userSpaceOnUse"
       id="linearGradient3886"
       xlink:href="#linearGradient3795"
       inkscape:collect="always" />
    <linearGradient
       id="linearGradient3795">
      <stop
         style="stop-color:#13a6fd;stop-opacity:1;"
         offset="0"
         id="stop3797" />
      <stop
         style="stop-color:#2975b6;stop-opacity:1;"
         offset="1"
         id="stop3799" />
    </linearGradient>
    <linearGradient
       y2="1046.1001"
       x2="47.999954"
       y1="962.62189"
       x1="47.999954"
       gradientTransform="matrix(1.15,0,0,1.15,-7.1999462,-150.65292)"
       gradientUnits="userSpaceOnUse"
       id="linearGradient11642"
       xlink:href="#linearGradient5801"
       inkscape:collect="always" />
    <linearGradient
       id="linearGradient5801"
       y2="902.35999"
       gradientUnits="userSpaceOnUse"
       x2="48"
       gradientTransform="translate(81.355932,-20.338991)"
       y1="1052.4"
       x1="48">
      <stop
         id="stop3189-6"
         style="stop-color:#3c393e"
         offset="0" />
      <stop
         id="stop3191-0"
         style="stop-color:#79727e"
         offset="1" />
    </linearGradient>
    <linearGradient
       y2="902.35999"
       x2="48"
       y1="1052.4"
       x1="48"
       gradientTransform="translate(-111.23352,-7.9978007)"
       gradientUnits="userSpaceOnUse"
       id="linearGradient3052"
       xlink:href="#linearGradient5801"
       inkscape:collect="always" />
    <linearGradient
       id="linearGradient3113"
       y2="48.084"
       gradientUnits="userSpaceOnUse"
       x2="96.830002"
       gradientTransform="matrix(0.96152,0.27472,-0.96152,0.27472,0,0)"
       y1="15.626"
       x1="64.372002">
      <stop
         id="stop3665-3"
         style="stop-color:#6ecbf8"
         offset="0" />
      <stop
         id="stop3667"
         style="stop-color:#0077b9"
         offset="1" />
    </linearGradient>
    <linearGradient
       id="linearGradient3110"
       y2="74.737"
       gradientUnits="userSpaceOnUse"
       x2="61.959999"
       y1="58.321999"
       x1="36.280998">
      <stop
         id="stop3693"
         offset="0" />
      <stop
         id="stop3695"
         style="stop-opacity:0"
         offset="1" />
    </linearGradient>
    <linearGradient
       id="linearGradient3107"
       y2="66.137001"
       gradientUnits="userSpaceOnUse"
       x2="59.030998"
       y1="37.727001"
       x1="59.030998">
      <stop
         id="stop3683-8"
         style="stop-color:#28c809"
         offset="0" />
      <stop
         id="stop3685-9"
         style="stop-color:#88f342;stop-opacity:.75806"
         offset="1" />
    </linearGradient>
    <linearGradient
       id="linearGradient3104-64"
       y2="69.789001"
       gradientUnits="userSpaceOnUse"
       x2="40.068001"
       y1="37.445"
       x1="40.068001">
      <stop
         id="stop3675"
         style="stop-color:#f70000"
         offset="0" />
      <stop
         id="stop3677"
         style="stop-color:#ff6e2a;stop-opacity:.83871"
         offset="1" />
    </linearGradient>
    <linearGradient
       id="linearGradient3099"
       y2="52.120998"
       gradientUnits="userSpaceOnUse"
       x2="41.723"
       gradientTransform="translate(0,-0.37881)"
       y1="34.444"
       x1="34.784">
      <stop
         id="stop3746-3"
         offset="0" />
      <stop
         id="stop3748-33"
         style="stop-opacity:0"
         offset="1" />
    </linearGradient>
    <linearGradient
       id="linearGradient3101"
       y2="52.120998"
       gradientUnits="userSpaceOnUse"
       x2="41.723"
       gradientTransform="translate(0,-0.37881)"
       y1="32.675999"
       x1="39.071999">
      <stop
         id="stop3740-8"
         style="stop-opacity:0"
         offset="0" />
      <stop
         id="stop3742-6"
         style="stop-opacity:0"
         offset="1" />
    </linearGradient>
    <linearGradient
       id="linearGradient3092-0"
       y2="54.953999"
       xlink:href="#linearGradient3701"
       gradientUnits="userSpaceOnUse"
       x2="113.77"
       gradientTransform="translate(-80,0)"
       y1="38.074001"
       x1="113.77" />
    <linearGradient
       id="linearGradient3701">
      <stop
         id="stop3703"
         style="stop-color:#fff"
         offset="0" />
      <stop
         id="stop3705"
         style="stop-color:#fff;stop-opacity:0"
         offset="1" />
    </linearGradient>
    <linearGradient
       id="linearGradient3089-4"
       y2="47.639"
       xlink:href="#linearGradient3701"
       gradientUnits="userSpaceOnUse"
       x2="133.59"
       gradientTransform="translate(-80,0)"
       y1="30.34"
       x1="137.63" />
    <linearGradient
       id="linearGradient3087">
      <stop
         id="stop3089"
         style="stop-color:#fff"
         offset="0" />
      <stop
         id="stop3091"
         style="stop-color:#fff;stop-opacity:0"
         offset="1" />
    </linearGradient>
    <linearGradient
       id="linearGradient3086"
       y2="80.766998"
       xlink:href="#linearGradient3701"
       gradientUnits="userSpaceOnUse"
       x2="47.341999"
       y1="39.073002"
       x1="47.341999" />
    <linearGradient
       id="linearGradient3094">
      <stop
         id="stop3096"
         style="stop-color:#fff"
         offset="0" />
      <stop
         id="stop3098"
         style="stop-color:#fff;stop-opacity:0"
         offset="1" />
    </linearGradient>
    <linearGradient
       id="linearGradient3083-8"
       y2="30.688"
       xlink:href="#linearGradient3701"
       gradientUnits="userSpaceOnUse"
       x2="76.014"
       y1="41.125"
       x1="49.125" />
    <linearGradient
       id="linearGradient3102">
      <stop
         id="stop3104"
         style="stop-color:#fff"
         offset="0" />
      <stop
         id="stop3106"
         style="stop-color:#fff;stop-opacity:0"
         offset="1" />
    </linearGradient>
    <clipPath
       clipPathUnits="userSpaceOnUse"
       id="clipPath3009">
      <path
         id="path3011"
         d="m -2,956.36218 -96,0 0,33.5624 96,25.68742 0,-59.24982 z"
         style="opacity:0.15;fill:#ffffff;fill-opacity:1;stroke:none"
         inkscape:connector-curvature="0" />
    </clipPath>
  </defs>
  <sodipodi:namedview
     id="base"
     pagecolor="#ffffff"
     bordercolor="#666666"
     borderopacity="1.0"
     inkscape:pageopacity="0.0"
     inkscape:pageshadow="2"
     inkscape:zoom="3.959798"
     inkscape:cx="33.538031"
     inkscape:cy="59.964634"
     inkscape:document-units="px"
     inkscape:current-layer="layer1"
     showgrid="false"
     inkscape:window-width="1280"
     inkscape:window-height="750"
     inkscape:window-x="0"
     inkscape:window-y="22"
     inkscape:window-maximized="1"
     showguides="true"
     inkscape:guide-bbox="true">
    <sodipodi:guide
       orientation="0,1"
       position="-24.748737,0"
       id="guide11064" />
    <sodipodi:guide
       orientation="0,1"
       position="-23.233509,96"
       id="guide11066" />
    <sodipodi:guide
       orientation="1,0"
       position="0,54.800776"
       id="guide11068" />
    <sodipodi:guide
       orientation="1,0"
       position="96,51.012704"
       id="guide11070" />
    <sodipodi:guide
       orientation="0,1"
       position="-18.94036,48"
       id="guide11072" />
    <sodipodi:guide
       orientation="1,0"
       position="48,79.296975"
       id="guide11074" />
    <sodipodi:guide
       orientation="1,0"
       position="2,75.508903"
       id="guide11076" />
    <sodipodi:guide
       orientation="0,1"
       position="-77.27667,2"
       id="guide11078" />
    <sodipodi:guide
       orientation="1,0"
       position="94,77.781746"
       id="guide11080" />
    <sodipodi:guide
       orientation="0,1"
       position="-65.912454,94"
       id="guide11082" />
  </sodipodi:namedview>
  <metadata
     id="metadata11042">
    <rdf:RDF>
      <cc:Work
         rdf:about="">
        <dc:format>image/svg+xml</dc:format>
        <dc:type
           rdf:resource="http://purl.org/dc/dcmitype/StillImage" />
        <dc:title />
      </cc:Work>
    </rdf:RDF>
  </metadata>
  <g
     inkscape:label="Layer 1"
     inkscape:groupmode="layer"
     id="layer1"
     transform="translate(0,-956.36218)">
    <rect
       x="2"
       y="958.36218"
       width="92"
       height="92"
       style="fill:url(#linearGradient11642);fill-opacity:1.0"
       id="rect3867"
       rx="25"
       ry="25" />
    <g
       id="g3122"
       transform="matrix(1.204,0,0,1.204,-9.9065,942.71217)">
      <path
         inkscape:connector-curvature="0"
         id="path3717"
         style="opacity:0.8;fill:#004455"
         d="M 47.25,28.531 26.5,33.968 v 0.5625 l 0.5,-0.0625 20,-5.25 21.75,3.375 0.875,0.125 V 32.156 L 47.25,28.531 z" />
      <path
         inkscape:connector-curvature="0"
         id="rect3659"
         style="opacity:0.8;fill:url(#linearGradient3113)"
         d="M 46.999,29.221 68.746,32.5997 49.378,40.0843 27,34.4734 47,29.2209 z" />
      <path
         inkscape:connector-curvature="0"
         id="rect3661"
         style="fill:url(#linearGradient3110)"
         d="M 47.126,52.842 67.138,59.064 49.347,70.811 28.831,61.716 47.126,52.842 z" />
      <path
         inkscape:connector-curvature="0"
         id="path3679"
         style="opacity:0.8;fill:url(#linearGradient3107)"
         d="M 49.371,40.063 V 72.64 L 68.69,59.634 V 32.612 l -19.319,7.4499 z" />
      <path
         inkscape:connector-curvature="0"
         id="path3681"
         style="opacity:0.8;fill:url(#linearGradient3104-64)"
         d="M 49.371,40.063 V 72.64 l -22.186,-9.9306 -0.10012,-28.234 22.286,5.5874 z" />
      <path
         inkscape:connector-curvature="0"
         id="path3727"
         style="opacity:0.2;fill:url(#linearGradient3099);stroke:url(#linearGradient3101)"
         d="m 29.728,35.138 17.425,-4.7982 -0.25254,20.961 -17.173,9.0914 v -25.254 z" />
      <path
         inkscape:connector-curvature="0"
         id="path3699"
         style="opacity:0.6;fill:url(#linearGradient3092-0)"
         d="m 28.402,36.717 18.751,4.987 -14.458,21.719 -4.3563,-1.9572 0.0631,-24.749 h 4e-5 z" />
      <path
         inkscape:connector-curvature="0"
         id="path3709"
         style="opacity:0.4;fill:url(#linearGradient3089-4)"
         d="m 48.289,30.34 v 21.592 l 18.688,5.6821 v -24.496 l -18.688,-2.778 z" />
      <path
         inkscape:connector-curvature="0"
         id="path2889"
         style="text-indent:0;text-transform:none;block-progression:tb;opacity:0.7;color:#000000;fill:url(#linearGradient3086)"
         d="M 29.125,33.906 27,34.469 27.094,34.5 v 0.96875 l 21.219,5.6875 v 31 l 1.063,0.469 0.937,-0.625 v -32.406 l -0.71875,-0.1875 -20.469,-5.5 z" />
      <path
         inkscape:connector-curvature="0"
         id="path2891"
         style="text-indent:0;text-transform:none;block-progression:tb;opacity:0.7;color:#000000;fill:url(#linearGradient3083-8)"
         d="m 66.719,32.281 -17.594,6.969 0.75,1.875 18.812,-7.5 v -1 l 0.0625,-0.03125 -2.0312,-0.3125 z" />
      <path
         inkscape:connector-curvature="0"
         id="path3704"
         style="fill:#800000"
         d="m 26.5,34.469 0.09375,29 22.781,10.188 v -1.0312 l -22.187,-9.907 -0.094,-28.268 -0.594,0.018 z" />
      <path
         inkscape:connector-curvature="0"
         id="path3710"
         style="opacity:0.8;fill:#225500"
         d="m 69.688,32.72 -1,-0.14586 v 27.051 l -19.312,13 v 1.1562 l 20.312,-13.375 v -27.687 z" />
    </g>
    <rect
       ry="25"
       rx="25"
       id="rect3003"
       style="opacity:0.15;fill:#ffffff;fill-opacity:1"
       height="92"
       width="92"
       y="958.36218"
       x="-96"
       clip-path="url(#clipPath3009)"
       transform="translate(98,3.8281269e-7)" />
  </g>
</svg>
